resources/svg/bar-chart-2-line.svg

<svg xmlns="http://www.w3.org/2000/svg" viewBox="0 0 24 24" fill="currentColor">
    <g>
        <path fill="none" d="M0 0h24v24H0z"/>
        <path d="M2 13h6v8H2v-8zm14-5h6v13h-6V8zM9 3h6v18H9V3zM4 15v4h2v-4H4zm7-10v14h2V5h-2zm7 5v9h2v-9h-2z"/>
    </g>
</svg>

<svg fill="currentColor" viewBox="0 0 24 24" xmlns="http://www.w3.org/2000/svg"><path d="M2 13H8V21H2V13ZM16 8H22V21H16V8ZM9 3H15V21H9V3ZM4 15V19H6V15H4ZM11 5V19H13V5H11ZM18 10V19H20V10H18Z"/></svg>
